X:235
T:Andy McGann's No2
O:england
M:4/4
L:1/8
K:D
|d ~F3 AGFE|DEFD E ~B,3|ADFA BdAF| ~E3 D EFGA|
|1 d ~F3 AGFE|DEFD E ~B,3|ADFA BdAF| EA,CE ~D3 c:|
|2 d2 fd ~c2 ec|~B3 d AGFE|D2 FA BdAF|EA,CE ~D3 c||
d2 fd edfd|~B3 d AGFE|D2 FA BdAF|~E3 D EFGA|
|1 d2 fd edfd|~B3 d AGFE|D2 FA BdAF|EA,CE D3 c:|
|2 faba f ~d3| ~B3 d AGFE|D2 FA BdAF|EA,CE D3 ||


